images/alice-cornelio-psicologa.svg

<svg width="112" height="79" viewBox="0 0 112 79" fill="none" xmlns="http://www.w3.org/2000/svg">
<g clip-path="url(#clip0_907_326)">
<path d="M54.5504 59.35V59.89H49.0404V59.35C49.9504 59.28 50.3904 58.66 50.0404 57.78L48.6204 54.35H41.7104L40.3904 57.88C40.0504 58.81 40.4404 59.25 41.3704 59.35V59.89H37.6504V59.35C38.5804 59.25 39.0004 58.81 39.3404 57.9L44.2604 44.72C44.5504 43.94 44.3804 43.35 43.5304 43.27V42.73H46.4704L52.8404 57.86C53.2304 58.77 53.6204 59.26 54.5504 59.33V59.35ZM48.2604 53.42L45.0004 45.49L42.0604 53.42H48.2604Z" fill="#2C424C"/>
<path d="M59.9391 59.35V59.89H55.0391V59.35C55.9691 59.28 56.2191 58.84 56.2191 57.88V44.73C56.2191 43.77 55.9691 43.36 55.0391 43.28V42.74L58.3691 41.86H58.7591V57.88C58.7591 58.84 58.9991 59.28 59.9391 59.35Z" fill="#2C424C"/>
<path d="M66.0399 59.3501V59.8901H61.1699V59.3501C62.0799 59.2801 62.3199 58.8401 62.3199 57.8801V50.9201C62.3199 49.9701 62.0799 49.5201 61.1699 49.4501V48.9101L64.4999 48.0501H64.8899V57.8701C64.8899 58.8301 65.1299 59.2701 66.0399 59.3401V59.3501ZM61.6999 44.7001C61.6999 43.6501 62.4799 43.0601 63.4099 43.0601C64.3399 43.0601 65.1199 43.6501 65.1199 44.7001C65.1199 45.7501 64.3399 46.3401 63.4099 46.3401C62.4799 46.3401 61.6999 45.7501 61.6999 44.7001Z" fill="#2C424C"/>
<path d="M77.8606 57.3499C77.0306 58.9899 75.3106 60.1399 73.1606 60.1399C69.9006 60.1399 67.1406 57.7599 67.1406 53.9199C67.1406 50.0799 69.9606 48.0699 73.1206 48.0699C75.1806 48.0699 76.7406 48.7599 77.4806 49.9799C77.9006 50.6899 77.8506 51.8199 76.9206 52.1299C76.1606 52.3999 75.1806 51.9099 75.2506 50.5599C75.3206 49.3099 74.4206 48.4999 73.0506 48.6299C71.2106 48.7999 69.5006 50.7399 69.6706 53.9199C69.9406 59.3299 75.4006 59.8499 77.5306 57.0799L77.8706 57.3499H77.8606Z" fill="#2C424C"/>
<path d="M90.0398 53.6999H81.6199C81.6199 53.7699 81.6198 53.8499 81.6398 53.9199C81.9098 59.3299 87.4199 59.8499 89.5499 57.0799L89.8898 57.3699C89.0598 58.9899 87.1998 60.1399 85.1098 60.1399C81.8798 60.1399 79.0898 57.7599 79.0898 53.9199C79.0898 50.0799 81.6099 48.0699 84.8699 48.0699C88.4199 48.0699 90.0898 50.5399 90.0398 53.5599V53.7099V53.6999ZM81.6398 52.8199H87.6898C87.7598 50.6399 86.8598 48.5799 84.8198 48.6099C83.1098 48.6299 81.8098 50.2499 81.6398 52.8199Z" fill="#2C424C"/>
<path d="M36.3707 73.81L35.8607 77.19C34.3707 78.27 32.7707 79.03 29.9307 78.93C24.8607 78.78 20.7207 75.45 20.7207 70.11C20.7207 64.77 24.6107 61.29 29.7807 61.29C31.9807 61.29 34.2607 62 35.8507 63.03V66.51H35.3407C34.6107 63.45 32.4507 61.98 29.7807 61.98C25.9607 61.98 23.5807 65.41 23.5807 70.11C23.5807 74.81 25.9607 78.02 29.7807 78.27C32.7707 78.44 34.9207 76.92 35.8807 73.81H36.3707Z" fill="#2C424C"/>
<path d="M49.7609 72.88C49.7609 76.7 46.8709 78.93 43.6109 78.93C40.3509 78.93 37.4609 76.7 37.4609 72.88C37.4609 69.06 40.3509 66.86 43.6109 66.86C46.8709 66.86 49.7609 69.06 49.7609 72.88ZM47.1109 72.88C47.1109 69.7 45.8109 67.54 43.6109 67.54C41.4109 67.54 40.1109 69.7 40.1109 72.88C40.1109 76.06 41.4109 78.22 43.6109 78.22C45.8109 78.22 47.1109 76.07 47.1109 72.88Z" fill="#2C424C"/>
<path d="M59.8994 70.1601C59.0894 70.4301 58.2094 70.1401 58.1094 68.9301C58.0094 68.0201 57.5194 67.8501 56.8394 67.9801C55.8594 68.1501 54.8294 69.4701 54.8294 71.2401V76.7001C54.8294 77.6601 55.0694 78.0701 55.9794 78.1501V78.6901H51.1094V78.1501C52.0194 78.0801 52.2594 77.6601 52.2594 76.7001V69.7201C52.2594 68.7701 52.0194 68.3201 51.1094 68.2501V67.7101L54.3694 66.8501H54.7594V68.9301C55.4494 67.5801 56.5494 66.8701 57.9694 66.8501C59.1194 66.8301 60.2694 67.3401 60.6094 68.3701C60.8094 69.0301 60.5894 69.9101 59.8994 70.1601Z" fill="#2C424C"/>
<path d="M74.8891 78.15V78.69H70.0191V78.15C70.9291 78.08 71.1691 77.64 71.1691 76.68V71.22C71.1691 69.24 70.2891 67.79 68.3791 67.79C66.6891 67.79 65.5091 69.16 65.5091 71V76.68C65.5091 77.64 65.7491 78.08 66.6891 78.15V78.69H61.7891V78.15C62.7191 78.08 62.9691 77.64 62.9691 76.68V69.72C62.9691 68.77 62.7191 68.32 61.7891 68.25V67.71L65.0491 66.85H65.4391V68.64C66.3691 67.41 67.6891 66.85 69.2091 66.85C72.2191 66.85 73.7391 68.88 73.7391 71.45V76.67C73.7391 77.63 73.9791 78.07 74.8891 78.14V78.15Z" fill="#2C424C"/>
<path d="M86.45 72.49H78.03C78.03 72.56 78.03 72.64 78.05 72.71C78.32 78.12 83.83 78.64 85.96 75.87L86.3 76.16C85.47 77.78 83.61 78.93 81.52 78.93C78.29 78.93 75.5 76.55 75.5 72.71C75.5 68.87 78.02 66.86 81.28 66.86C84.83 66.86 86.5 69.33 86.45 72.35V72.5V72.49ZM78.05 71.61H84.1C84.17 69.43 83.27 67.37 81.23 67.4C79.52 67.42 78.22 69.04 78.05 71.61ZM82.97 63.99C81.79 64.48 80.72 64.85 79.88 65.09C79.56 65.19 79.39 65.16 79.27 64.94C79.15 64.7 79.22 64.55 79.49 64.35C80.15 63.79 81.06 63.1 82.11 62.39C82.75 61.97 83.24 62.15 83.53 62.66C83.8 63.17 83.68 63.69 82.97 63.98V63.99Z" fill="#2C424C"/>
<path d="M92.4801 78.15V78.69H87.5801V78.15C88.5101 78.08 88.7601 77.64 88.7601 76.68V63.53C88.7601 62.57 88.5101 62.16 87.5801 62.08V61.54L90.9101 60.66H91.3001V76.68C91.3001 77.64 91.5401 78.08 92.4801 78.15Z" fill="#2C424C"/>
<path d="M98.5692 78.15V78.69H93.6992V78.15C94.6092 78.08 94.8492 77.64 94.8492 76.68V69.72C94.8492 68.77 94.6092 68.32 93.6992 68.25V67.71L97.0292 66.85H97.4192V76.67C97.4192 77.63 97.6592 78.07 98.5692 78.14V78.15ZM94.2292 63.5C94.2292 62.45 95.0092 61.86 95.9392 61.86C96.8692 61.86 97.6492 62.45 97.6492 63.5C97.6492 64.55 96.8692 65.14 95.9392 65.14C95.0092 65.14 94.2292 64.55 94.2292 63.5Z" fill="#2C424C"/>
<path d="M111.851 72.88C111.851 76.7 108.961 78.93 105.701 78.93C102.441 78.93 99.5508 76.7 99.5508 72.88C99.5508 69.06 102.441 66.86 105.701 66.86C108.961 66.86 111.851 69.06 111.851 72.88ZM109.201 72.88C109.201 69.7 107.901 67.54 105.701 67.54C103.501 67.54 102.201 69.7 102.201 72.88C102.201 76.06 103.501 78.22 105.701 78.22C107.901 78.22 109.201 76.07 109.201 72.88Z" fill="#2C424C"/>
<path d="M33.98 7.61998C33.98 7.61998 33.79 7.60998 33.47 7.60998C32.14 7.60998 28.53 7.82998 26.27 10.09C25.28 11.08 24.69 12.33 24.33 13.53V9.90998C24.36 8.83998 24.25 4.88998 21.84 2.47998C19.02 -0.330022 14.12 0.00997792 14.12 0.00997792C14.12 0.00997792 13.78 4.90998 16.59 7.71998C18.6 9.72998 21.66 10.12 23.25 10.19V27.45C23.35 30.34 22.25 33.16 20.21 35.2C17.01 38.4 11.79 38.4 8.59 35.2C7.76 34.36 7.14 33.31 6.88 32.16C6.37 29.93 7 27.72 8.52 26.15C9.23 25.42 10.14 24.89 11.14 24.69C12.78 24.36 14.4 24.83 15.58 25.91C16.24 26.51 16.72 27.33 16.86 28.21C17.06 29.5 16.65 30.75 15.76 31.64C14.61 32.79 12.6 32.79 11.45 31.64C11.09 32.14 11.24 32.86 11.77 33.16C12.31 33.46 12.9 33.61 13.59 33.61C14.61 33.61 15.62 33.23 16.37 32.54C17.74 31.27 18.3 29.38 17.8 27.48C17.61 26.77 17.24 26.1 16.75 25.55C14.39 22.91 10.31 22.83 7.83 25.3C4.89 28.24 4.89 33.02 7.83 35.96C9.95 38.08 12.91 39.05 15.95 38.55C17.86 38.24 19.59 37.32 20.96 35.96C23.21 33.71 24.43 30.59 24.31 27.42V17.8C25.65 17.8 29.25 17.57 31.51 15.32C34.32 12.51 33.98 7.60998 33.98 7.60998V7.61998Z" fill="#2C424C"/>
<path d="M39.5802 42.03C39.5802 42.03 36.0002 39.63 35.4502 34.96C35.4002 34.52 35.3502 34.03 35.3002 33.51C34.9502 29.86 34.0402 23.13 30.1902 18.87C28.8902 19.45 27.5602 19.75 26.4302 19.9C30.4602 23.81 31.2502 29.87 31.6002 33.54C31.6502 34.07 31.7002 34.56 31.7502 35.01C32.2202 39.02 34.6502 41.47 35.7802 42.41L32.6702 44.9L30.4502 53.74C25.4502 55.82 17.8302 50.61 17.8302 50.61L17.6002 57.84L10.1302 57.93L8.56019 47.06L8.53019 46.86L8.25019 46.63C-1.65981 38.22 0.870193 29.61 3.27019 25.23C5.27019 21.57 11.8302 15.44 21.1102 16.04V15.01C10.7702 14.42 4.45019 20.82 2.32019 24.72C-0.229807 29.38 -2.93981 38.53 7.53019 47.44L9.20019 59.03H20.3702L20.5302 55.11C22.6402 56.32 27.7702 58.57 33.1502 55.74C33.3102 55.66 33.4202 55.51 33.4702 55.34L36.2302 45.62L40.1902 42.45L39.5702 42.04L39.5802 42.03Z" fill="#C35349"/>
</g>
<defs>
<clipPath id="clip0_907_326">
<rect width="112" height="79" fill="white"/>
</clipPath>
</defs>
</svg>

<?xml version="1.0" encoding="utf-8"?>
<!-- Generator: Adobe Illustrator 28.2.0, SVG Export Plug-In . SVG Version: 6.00 Build 0)  -->
<svg version="1.1" id="Layer_1" xmlns="http://www.w3.org/2000/svg" xmlns:xlink="http://www.w3.org/1999/xlink" x="0px" y="0px"
	 viewBox="0 0 112 79" style="enable-background:new 0 0 112 79;" xml:space="preserve">
<style type="text/css">
	.st0{clip-path:url(#SVGID_00000041274910914248043450000013786455055440237995_);}
	.st1{fill:#2C424C;}
	.st2{fill:#C35349;}
</style>
<g>
	<defs>
		<rect id="SVGID_1_" y="0" width="112" height="79"/>
	</defs>
	<clipPath id="SVGID_00000056389850224829117140000013325715440970662334_">
		<use xlink:href="#SVGID_1_"  style="overflow:visible;"/>
	</clipPath>
	<g style="clip-path:url(#SVGID_00000056389850224829117140000013325715440970662334_);">
		<path class="st1" d="M54.6,59.3v0.5H49v-0.5c0.9-0.1,1.3-0.7,1-1.6l-1.4-3.4h-6.9l-1.3,3.5c-0.3,0.9,0,1.4,1,1.5v0.5h-3.7v-0.5
			c0.9-0.1,1.4-0.5,1.7-1.4l4.9-13.2c0.3-0.8,0.1-1.4-0.7-1.5v-0.5h2.9l6.4,15.1C53.2,58.8,53.6,59.3,54.6,59.3L54.6,59.3z
			 M48.3,53.4L45,45.5l-2.9,7.9H48.3z"/>
		<path class="st1" d="M59.9,59.3v0.5H55v-0.5c0.9-0.1,1.2-0.5,1.2-1.5V44.7c0-1-0.2-1.4-1.2-1.5v-0.5l3.3-0.9h0.4v16
			C58.8,58.8,59,59.3,59.9,59.3z"/>
		<path class="st1" d="M66,59.4v0.5h-4.9v-0.5c0.9-0.1,1.2-0.5,1.2-1.5v-7c0-1-0.2-1.4-1.2-1.5v-0.5l3.3-0.9h0.4v9.8
			C64.9,58.8,65.1,59.3,66,59.4L66,59.4z M61.7,44.7c0-1,0.8-1.6,1.7-1.6c0.9,0,1.7,0.6,1.7,1.6s-0.8,1.6-1.7,1.6
			C62.5,46.3,61.7,45.8,61.7,44.7z"/>
		<path class="st1" d="M77.9,57.3c-0.8,1.6-2.6,2.8-4.7,2.8c-3.3,0-6-2.4-6-6.2s2.8-5.8,6-5.8c2.1,0,3.6,0.7,4.4,1.9
			c0.4,0.7,0.4,1.8-0.6,2.2c-0.8,0.3-1.7-0.2-1.7-1.6c0.1-1.2-0.8-2.1-2.2-1.9c-1.8,0.2-3.5,2.1-3.4,5.3c0.3,5.4,5.7,5.9,7.9,3.2
			L77.9,57.3L77.9,57.3z"/>
		<path class="st1" d="M90,53.7h-8.4c0,0.1,0,0.1,0,0.2c0.3,5.4,5.8,5.9,7.9,3.2l0.3,0.3c-0.8,1.6-2.7,2.8-4.8,2.8
			c-3.2,0-6-2.4-6-6.2s2.5-5.8,5.8-5.8c3.5,0,5.2,2.5,5.2,5.5V53.7L90,53.7z M81.6,52.8h6c0.1-2.2-0.8-4.2-2.9-4.2
			C83.1,48.6,81.8,50.2,81.6,52.8z"/>
		<path class="st1" d="M36.4,73.8l-0.5,3.4c-1.5,1.1-3.1,1.8-5.9,1.7c-5.1-0.2-9.2-3.5-9.2-8.8c0-5.3,3.9-8.8,9.1-8.8
			c2.2,0,4.5,0.7,6.1,1.7v3.5h-0.5c-0.7-3.1-2.9-4.5-5.6-4.5c-3.8,0-6.2,3.4-6.2,8.1s2.4,7.9,6.2,8.2c3,0.2,5.1-1.3,6.1-4.5H36.4z"
			/>
		<path class="st1" d="M49.8,72.9c0,3.8-2.9,6.1-6.1,6.1c-3.3,0-6.2-2.2-6.2-6.1s2.9-6,6.2-6C46.9,66.9,49.8,69.1,49.8,72.9z
			 M47.1,72.9c0-3.2-1.3-5.3-3.5-5.3s-3.5,2.2-3.5,5.3s1.3,5.3,3.5,5.3S47.1,76.1,47.1,72.9z"/>
		<path class="st1" d="M59.9,70.2c-0.8,0.3-1.7,0-1.8-1.2C58,68,57.5,67.9,56.8,68c-1,0.2-2,1.5-2,3.3v5.5c0,1,0.2,1.4,1.2,1.4v0.5
			h-4.9v-0.5c0.9-0.1,1.1-0.5,1.1-1.4v-7c0-0.9-0.2-1.4-1.1-1.5v-0.5l3.3-0.9h0.4v2.1c0.7-1.3,1.8-2.1,3.2-2.1
			c1.2,0,2.3,0.5,2.6,1.5C60.8,69,60.6,69.9,59.9,70.2z"/>
		<path class="st1" d="M74.9,78.2v0.5H70v-0.5c0.9-0.1,1.2-0.5,1.2-1.5v-5.5c0-2-0.9-3.4-2.8-3.4c-1.7,0-2.9,1.4-2.9,3.2v5.7
			c0,1,0.2,1.4,1.2,1.5v0.5h-4.9v-0.5c0.9-0.1,1.2-0.5,1.2-1.5v-7c0-1-0.2-1.4-1.2-1.5v-0.5l3.3-0.9h0.4v1.8
			c0.9-1.2,2.2-1.8,3.8-1.8c3,0,4.5,2,4.5,4.6v5.2C73.7,77.6,74,78.1,74.9,78.2L74.9,78.2z"/>
		<path class="st1" d="M86.4,72.5H78c0,0.1,0,0.2,0,0.2c0.3,5.4,5.8,5.9,7.9,3.2l0.3,0.3c-0.8,1.6-2.7,2.8-4.8,2.8
			c-3.2,0-6-2.4-6-6.2c0-3.8,2.5-5.8,5.8-5.8c3.6,0,5.2,2.5,5.2,5.5V72.5L86.4,72.5z M78.1,71.6h6c0.1-2.2-0.8-4.2-2.9-4.2
			C79.5,67.4,78.2,69,78.1,71.6z M83,64c-1.2,0.5-2.2,0.9-3.1,1.1c-0.3,0.1-0.5,0.1-0.6-0.1c-0.1-0.2,0-0.4,0.2-0.6
			c0.7-0.6,1.6-1.2,2.6-2c0.6-0.4,1.1-0.2,1.4,0.3C83.8,63.2,83.7,63.7,83,64L83,64z"/>
		<path class="st1" d="M92.5,78.2v0.5h-4.9v-0.5c0.9-0.1,1.2-0.5,1.2-1.5V63.5c0-1-0.2-1.4-1.2-1.4v-0.5l3.3-0.9h0.4v16
			C91.3,77.6,91.5,78.1,92.5,78.2z"/>
		<path class="st1" d="M98.6,78.2v0.5h-4.9v-0.5c0.9-0.1,1.1-0.5,1.1-1.5v-7c0-1-0.2-1.4-1.1-1.5v-0.5l3.3-0.9h0.4v9.8
			C97.4,77.6,97.7,78.1,98.6,78.2L98.6,78.2z M94.2,63.5c0-1,0.8-1.6,1.7-1.6s1.7,0.6,1.7,1.6c0,1.1-0.8,1.6-1.7,1.6
			S94.2,64.6,94.2,63.5z"/>
		<path class="st1" d="M111.9,72.9c0,3.8-2.9,6.1-6.2,6.1c-3.3,0-6.2-2.2-6.2-6.1s2.9-6,6.2-6C109,66.9,111.9,69.1,111.9,72.9z
			 M109.2,72.9c0-3.2-1.3-5.3-3.5-5.3c-2.2,0-3.5,2.2-3.5,5.3s1.3,5.3,3.5,5.3C107.9,78.2,109.2,76.1,109.2,72.9z"/>
		<path class="st1" d="M34,7.6c0,0-0.2,0-0.5,0c-1.3,0-4.9,0.2-7.2,2.5c-1,1-1.6,2.2-1.9,3.4V9.9c0-1.1-0.1-5-2.5-7.4
			C19-0.3,14.1,0,14.1,0s-0.3,4.9,2.5,7.7c2,2,5.1,2.4,6.7,2.5v17.3c0.1,2.9-1,5.7-3,7.8c-3.2,3.2-8.4,3.2-11.6,0
			c-0.8-0.8-1.5-1.9-1.7-3c-0.5-2.2,0.1-4.4,1.6-6c0.7-0.7,1.6-1.3,2.6-1.5c1.6-0.3,3.3,0.1,4.4,1.2c0.7,0.6,1.1,1.4,1.3,2.3
			c0.2,1.3-0.2,2.5-1.1,3.4c-1.2,1.2-3.2,1.2-4.3,0c-0.4,0.5-0.2,1.2,0.3,1.5c0.5,0.3,1.1,0.5,1.8,0.5c1,0,2-0.4,2.8-1.1
			c1.4-1.3,1.9-3.2,1.4-5.1c-0.2-0.7-0.6-1.4-1-1.9c-2.4-2.6-6.4-2.7-8.9-0.2C4.9,28.2,4.9,33,7.8,36c2.1,2.1,5.1,3.1,8.1,2.6
			c1.9-0.3,3.6-1.2,5-2.6c2.2-2.2,3.5-5.4,3.4-8.5v-9.6c1.3,0,4.9-0.2,7.2-2.5C34.3,12.5,34,7.6,34,7.6L34,7.6z"/>
		<path class="st2" d="M39.6,42c0,0-3.6-2.4-4.1-7.1c0-0.4-0.1-0.9-0.1-1.5C35,29.9,34,23.1,30.2,18.9c-1.3,0.6-2.6,0.9-3.8,1
			c4,3.9,4.8,10,5.2,13.6c0,0.5,0.1,1,0.1,1.5c0.5,4,2.9,6.5,4,7.4l-3.1,2.5l-2.2,8.8c-5,2.1-12.6-3.1-12.6-3.1l-0.2,7.2l-7.5,0.1
			L8.6,47.1l0-0.2l-0.3-0.2c-9.9-8.4-7.4-17-5-21.4c2-3.7,8.6-9.8,17.8-9.2v-1c-10.3-0.6-16.7,5.8-18.8,9.7
			c-2.5,4.7-5.3,13.8,5.2,22.7L9.2,59h11.2l0.2-3.9c2.1,1.2,7.2,3.5,12.6,0.6c0.2-0.1,0.3-0.2,0.3-0.4l2.8-9.7l4-3.2L39.6,42
			L39.6,42z"/>
	</g>
</g>
</svg>
